assets/img/braze_icons/align-left-01.svg

<svg fill="none" height="24" viewBox="0 0 24 24" width="24" xmlns="http://www.w3.org/2000/svg"><g fill="#801ed7"><path d="m3 2c.55229 0 1 .44772 1 1v18c0 .5523-.44772 1-1 1s-1-.4477-1-1v-18c0-.55228.44772-1 1-1z"/><path d="m9.41421 11 5.29289-5.29289c.3905-.39053.3905-1.02369 0-1.41422-.3905-.39052-1.0237-.39052-1.4142 0l-7.00001 7.00001c-.39052.3905-.39052 1.0237 0 1.4142l7.00001 7c.3905.3905 1.0237.3905 1.4142 0s.3905-1.0237 0-1.4142l-5.29289-5.2929h11.58579c.5523 0 1-.4477 1-1s-.4477-1-1-1z"/></g></svg>

<svg width="24" height="24" viewBox="0 0 24 24" fill="none" xmlns="http://www.w3.org/2000/svg">
<path d="M3 2C3.55229 2 4 2.44772 4 3L4 21C4 21.5523 3.55228 22 3 22C2.44772 22 2 21.5523 2 21V3C2 2.44772 2.44772 2 3 2Z" fill="#801ED7"/>
<path d="M9.41421 11L14.7071 5.70711C15.0976 5.31658 15.0976 4.68342 14.7071 4.29289C14.3166 3.90237 13.6834 3.90237 13.2929 4.29289L6.29289 11.2929C5.90237 11.6834 5.90237 12.3166 6.29289 12.7071L13.2929 19.7071C13.6834 20.0976 14.3166 20.0976 14.7071 19.7071C15.0976 19.3166 15.0976 18.6834 14.7071 18.2929L9.41421 13L21 13C21.5523 13 22 12.5523 22 12C22 11.4477 21.5523 11 21 11L9.41421 11Z" fill="#801ED7"/>
</svg>
